ids-wordpress/site-IdS/assets/images/projetos/icones-ferramentasetec/Photoshop.svg

<svg width="37" height="36" viewBox="0 0 37 36" fill="none" xmlns="http://www.w3.org/2000/svg">
<g clip-path="url(#clip0_694_1595)">
<path d="M17.821 0.102399C32.4212 -0.165251 41.397 16.0155 32.6052 27.9329C25.456 37.6229 10.3813 37.4022 3.59873 27.4256C-4.30774 15.7961 3.82705 0.357364 17.821 0.102399ZM30.2267 28.9122C38.5873 20.3195 34.9836 5.88669 23.6509 2.18271C11.3378 -1.84092 -0.679871 8.45664 2.16661 21.2531C4.96362 33.8263 21.2789 38.11 30.2267 28.9135V28.9122Z" fill="#F75705"/>
<path d="M24.5668 16.1585C24.9055 17.1416 26.2679 17.29 27.1064 17.7365C30.289 19.4324 29.9554 23.5804 26.6294 24.7461C24.7444 25.407 20.1563 25.1977 20.5217 22.3144C20.5851 21.8109 21.0049 21.0637 21.5174 20.9026C22.451 20.6096 23.1487 21.4937 24.1368 21.5914C24.9969 21.6764 25.9457 21.5115 24.8624 20.7403C23.3745 19.6798 21.4007 19.7115 20.7005 17.4244C19.4028 13.1864 24.6493 11.6465 27.823 13.0913C29.7511 13.9691 28.8239 16.5784 27.171 16.5416C26.3998 16.5238 25.4713 15.8997 24.5668 16.1585ZM27.7013 14.2887C27.3309 13.9044 25.4561 13.5987 24.8865 13.6228C21.6151 13.7661 20.3542 17.0566 23.2603 18.7919C24.3106 19.4198 26.4861 19.7331 26.4721 21.2908C26.4594 22.766 24.426 22.7648 23.3922 22.5884C22.7732 22.4832 21.903 21.4544 21.6772 22.2015C21.4654 22.9005 21.6836 23.1732 22.2443 23.4827C24.7 24.84 29.3427 23.4916 28.0133 20.1238C27.2687 18.2363 24.4527 18.3948 23.6535 17.0046C22.8506 15.6067 24.2726 14.9166 25.5157 15.0156C26.103 15.0625 26.9453 15.5395 27.4501 15.3023C27.8192 15.1285 27.9918 14.5868 27.7013 14.2862V14.2887Z" fill="#F75705"/>
<path d="M12.9044 19.9588V23.8238C12.9044 23.9723 12.4097 24.6648 12.2397 24.8069C10.9776 25.8496 9.11924 25.1431 8.8795 23.541C9.08626 19.4628 8.49895 14.9204 8.84398 10.8942C8.93404 9.84388 9.45539 8.97116 10.5717 8.81894C12.0723 8.61472 15.6786 8.7162 17.0485 9.29209C21.4058 11.1238 21.1407 17.6476 16.9217 19.4755C16.6452 19.5947 15.605 19.96 15.3779 19.96H12.9057L12.9044 19.9588ZM10.5869 9.97453C10.1924 10.0646 9.99957 10.3741 9.98688 10.7686C10.3294 14.7313 9.53784 19.4476 9.98688 23.319C10.115 24.4213 11.5864 24.4797 11.7564 23.4357C11.9048 22.53 11.5078 19.5973 11.9581 19.0759C12.364 18.604 14.5801 18.8894 15.3437 18.7854C20.2185 18.1258 20.4874 10.4185 15.2473 9.94916C14.3936 9.87305 11.3061 9.80836 10.5856 9.97453H10.5869Z" fill="#F75705"/>
<path d="M12.4883 11.4956C12.9856 11.3852 14.4126 11.4296 14.939 11.526C18.3398 12.145 17.8058 17.0021 14.495 17.3027C14.0156 17.3458 12.9234 17.361 12.4693 17.2887C11.887 17.1974 11.8046 16.8663 11.7577 16.3526C11.6777 15.4748 11.6422 13.1218 11.7716 12.2985C11.83 11.9205 12.1078 11.5793 12.4883 11.4943V11.4956ZM12.9044 16.2841C14.4304 16.5226 16.6007 15.7983 16.1136 13.9006C16.0045 13.4731 15.2777 12.6093 14.8693 12.6093H12.9044V16.2841Z" fill="#F75705"/>
</g>
<defs>
<clipPath id="clip0_694_1595">
<rect width="35.5785" height="34.9569" fill="white" transform="translate(0.502411 0.0982666)"/>
</clipPath>
</defs>
</svg>

<svg xmlns="http://www.w3.org/2000/svg" width="37" height="36" fill="none"><g fill="#F75705" clip-path="url(#a)"><path d="M17.821.102c14.6-.267 23.576 15.913 14.784 27.83-7.149 9.69-22.224 9.47-29.006-.506C-4.308 15.796 3.827.357 17.82.102Zm12.406 28.81c8.36-8.592 4.757-23.025-6.576-26.73C11.338-1.84-.68 8.458 2.167 21.254c2.797 12.573 19.112 16.857 28.06 7.66Z"/><path d="M24.567 16.159c.338.983 1.7 1.131 2.54 1.578 3.182 1.695 2.848 5.843-.478 7.01-1.885.66-6.473.45-6.107-2.433.063-.503.483-1.25.995-1.411.934-.293 1.632.59 2.62.688.86.085 1.809-.08.725-.85-1.487-1.061-3.461-1.03-4.161-3.317-1.298-4.238 3.948-5.777 7.122-4.333 1.928.878 1 3.487-.652 3.45-.771-.017-1.7-.641-2.604-.383Zm3.134-1.87c-.37-.385-2.245-.69-2.814-.666-3.272.143-4.533 3.434-1.627 5.169 1.05.628 3.226.941 3.212 2.499-.013 1.475-2.046 1.474-3.08 1.297-.619-.105-1.489-1.134-1.715-.387-.212.7.007.972.567 1.282 2.456 1.357 7.099.009 5.77-3.36-.745-1.887-3.561-1.728-4.36-3.118-.803-1.398.619-2.088 1.862-1.99.587.047 1.43.524 1.934.287.37-.173.542-.715.251-1.016v.003Z"/><path d="M12.904 19.959v3.865c0 .148-.494.84-.664.983-1.262 1.043-3.12.336-3.36-1.266.206-4.078-.381-8.62-.036-12.647.09-1.05.611-1.923 1.728-2.075 1.5-.204 5.107-.103 6.477.473 4.357 1.832 4.092 8.356-.127 10.184-.277.119-1.317.484-1.544.484h-2.472l-.002-.001Zm-2.317-9.984c-.395.09-.587.4-.6.794.342 3.962-.45 8.679 0 12.55.128 1.102 1.6 1.16 1.77.117.148-.906-.25-3.839.201-4.36.406-.472 2.622-.187 3.386-.29 4.874-.66 5.143-8.368-.097-8.837-.853-.076-3.94-.14-4.661.026Z"/><path d="M12.488 11.496c.498-.11 1.925-.066 2.451.03 3.4.619 2.867 5.476-.444 5.777-.48.043-1.572.058-2.026-.014-.582-.092-.664-.423-.711-.936-.08-.878-.116-3.231.014-4.055.058-.377.336-.719.716-.804v.002Zm.416 4.788c1.526.239 3.697-.486 3.21-2.383-.11-.428-.836-1.292-1.245-1.292h-1.965v3.675Z"/></g><defs><clipPath id="a"><path fill="#fff" d="M.502.098H36.08v34.957H.502z"/></clipPath></defs></svg>
